X: 9844
T: Denny's Air
R: barndance
M: 4/4
K: Gmajor
d4 c2 G2|A4 AG/A/ (B2|B)c BA/F/ G4|GF/G/ A4 B2|
c4 B2 (B2|B)G A4 AD/G/|A4 AG/A/ (B2|B)c BA/F/ G4|
GF/G/ A2 AG E2|EC D4 DF|FA/F/ G4 G2|F2 G2 G4||
DG|B4 BA/B/ d2|d2 dB/G/ G2 A2|A2 AB d4|dG/d/ c4 B2|
BG A2 AB B2|B2 D2 (3EFG A4|GE E2 (3EFG AB|Bc BA/F/ G4|
GF/G/ A2 AG E2|EC D4 DF|FA/F/ G4 G2|F2 G2 G4||

